public/assets/img/menu.svg

<svg width="20" height="20" viewBox="0 0 20 20" fill="none" xmlns="http://www.w3.org/2000/svg">
<path fill-rule="evenodd" clip-rule="evenodd" d="M16.0808 7.96222C16.4518 7.96222 16.7513 7.64972 16.7513 7.27863C16.7513 6.90102 16.4584 6.59503 16.0808 6.59503H3.91929C3.54169 6.59503 3.24872 6.90753 3.24872 7.27863C3.24872 7.64321 3.5482 7.96222 3.91929 7.96222H16.0808ZM16.0808 10.9896C16.4519 10.9896 16.7514 10.6771 16.7514 10.3061C16.7514 9.92845 16.4584 9.62246 16.0808 9.62246H3.91933C3.54173 9.62246 3.24876 9.93496 3.24876 10.3061C3.24876 10.6706 3.54824 10.9896 3.91933 10.9896H16.0808ZM16.7514 13.3334C16.7514 13.7045 16.4519 14.0235 16.0808 14.0235H3.91933C3.54824 14.0235 3.24876 13.698 3.24876 13.3334C3.24876 12.9623 3.54173 12.6498 3.91933 12.6498H16.0808C16.4584 12.6498 16.7514 12.9558 16.7514 13.3334Z" fill="#141029" fill-opacity="0.4"/>
</svg>

<svg width="20" height="20" fill="none" xmlns="http://www.w3.org/2000/svg"><path fill-rule="evenodd" clip-rule="evenodd" d="M16.08 7.962a.68.68 0 0 0 .671-.683.672.672 0 0 0-.67-.684H3.919a.677.677 0 0 0-.67.684c0 .364.3.683.67.683h12.162Zm0 3.028a.68.68 0 0 0 .671-.684.673.673 0 0 0-.67-.684H3.919a.677.677 0 0 0-.67.684c0 .365.3.684.67.684h12.162Zm.671 2.343c0 .371-.3.69-.67.69H3.919c-.37 0-.67-.325-.67-.69 0-.37.293-.683.67-.683h12.162c.377 0 .67.306.67.683Z" fill="#141029" fill-opacity=".4"/></svg>
